Numix-Light/16/status/indicator-keyboard-Sr-6.svg

<?xml version="1.0" encoding="UTF-8" standalone="no"?>
<svg
   xmlns:dc="http://purl.org/dc/elements/1.1/"
   xmlns:cc="http://creativecommons.org/ns#"
   xmlns:rdf="http://www.w3.org/1999/02/22-rdf-syntax-ns#"
   xmlns:svg="http://www.w3.org/2000/svg"
   xmlns="http://www.w3.org/2000/svg"
   xmlns:sodipodi="http://sodipodi.sourceforge.net/DTD/sodipodi-0.dtd"
   xmlns:inkscape="http://www.inkscape.org/namespaces/inkscape"
   viewBox="0 0 16 16"
   id="svg2"
   version="1.1"
   inkscape:version="0.91 r13725"
   sodipodi:docname="indicator-keyboard-Sr-6.svg">
  <metadata
     id="metadata14">
    <rdf:RDF>
      <cc:Work
         rdf:about="">
        <dc:format>image/svg+xml</dc:format>
        <dc:type
           rdf:resource="http://purl.org/dc/dcmitype/StillImage" />
      </cc:Work>
    </rdf:RDF>
  </metadata>
  <defs
     id="defs12" />
  <sodipodi:namedview
     pagecolor="#ffffff"
     bordercolor="#666666"
     borderopacity="1"
     objecttolerance="10"
     gridtolerance="10"
     guidetolerance="10"
     inkscape:pageopacity="0"
     inkscape:pageshadow="2"
     inkscape:window-width="640"
     inkscape:window-height="480"
     id="namedview10"
     showgrid="false"
     inkscape:zoom="14.75"
     inkscape:cx="8"
     inkscape:cy="8"
     inkscape:window-x="65"
     inkscape:window-y="24"
     inkscape:window-maximized="0"
     inkscape:current-layer="svg2" />
  <path
     style="fill:#353535;fill-opacity:1"
     d="M 1.5996094 0 C 0.71320937 2.9605947e-16 0 0.71320937 0 1.5996094 L 0 14.400391 C 2.9605947e-16 15.286791 0.71320937 16 1.5996094 16 L 14.400391 16 C 15.286791 16 16 15.286791 16 14.400391 L 16 1.5996094 C 16 0.71320937 15.286791 0 14.400391 0 L 1.5996094 0 z M 4.8496094 4.7246094 C 5.0176094 4.7246094 5.18175 4.7357656 5.34375 4.7597656 C 5.50575 4.7837656 5.6569219 4.817375 5.7949219 4.859375 C 5.9389219 4.895375 6.0676406 4.936375 6.1816406 4.984375 C 6.3016406 5.032375 6.4005156 5.0846719 6.4785156 5.1386719 L 6.2617188 5.6503906 C 6.0877187 5.5303906 5.8750469 5.4352813 5.6230469 5.3632812 C 5.3770469 5.2912813 5.1102656 5.2558594 4.8222656 5.2558594 C 4.6242656 5.2558594 4.4414375 5.2763594 4.2734375 5.3183594 C 4.1114375 5.3543594 3.9696094 5.4178125 3.8496094 5.5078125 C 3.7296094 5.5918125 3.6345 5.6980781 3.5625 5.8300781 C 3.4965 5.9620781 3.4628906 6.1225938 3.4628906 6.3085938 C 3.4628906 6.5005938 3.4983125 6.6629219 3.5703125 6.7949219 C 3.6423125 6.9269219 3.7411875 7.0407187 3.8671875 7.1367188 C 3.9991875 7.2327187 4.1521719 7.3184844 4.3261719 7.3964844 C 4.5001719 7.4744844 4.6905312 7.556625 4.8945312 7.640625 C 5.1405313 7.742625 5.3718906 7.8433125 5.5878906 7.9453125 C 5.8098906 8.0473125 6.0001094 8.1686406 6.1621094 8.3066406 C 6.3241094 8.4446406 6.4547812 8.6125469 6.5507812 8.8105469 C 6.6467813 9.0085469 6.6933594 9.2510625 6.6933594 9.5390625 C 6.6933594 10.103063 6.4956094 10.526594 6.0996094 10.808594 C 5.7096094 11.090594 5.1798125 11.230469 4.5078125 11.230469 C 4.2678125 11.230469 4.0476094 11.215547 3.8496094 11.185547 C 3.6516094 11.155547 3.4743594 11.120125 3.3183594 11.078125 C 3.1623594 11.030125 3.0318281 10.981594 2.9238281 10.933594 C 2.8158281 10.885594 2.731875 10.844594 2.671875 10.808594 L 2.8691406 10.277344 C 2.9291406 10.313344 3.0093281 10.354344 3.1113281 10.402344 C 3.2133281 10.450344 3.3346563 10.498875 3.4726562 10.546875 C 3.6106562 10.588875 3.7654531 10.624297 3.9394531 10.654297 C 4.1134531 10.684297 4.305625 10.699219 4.515625 10.699219 C 5.001625 10.699219 5.3803906 10.613453 5.6503906 10.439453 C 5.9203906 10.259453 6.0546875 9.970219 6.0546875 9.5742188 C 6.0546875 9.3462187 6.0099219 9.1578125 5.9199219 9.0078125 C 5.8359219 8.8518125 5.722125 8.7230938 5.578125 8.6210938 C 5.434125 8.5130937 5.2680312 8.4235625 5.0820312 8.3515625 C 4.8960312 8.2735625 4.7020469 8.1914219 4.4980469 8.1074219 C 4.2400469 8.0054219 4.0086875 7.9009687 3.8046875 7.7929688 C 3.6006875 7.6849688 3.4272031 7.5655937 3.2832031 7.4335938 C 3.1392031 7.2955937 3.0272188 7.1388438 2.9492188 6.9648438 C 2.8772187 6.7908437 2.8417969 6.5875156 2.8417969 6.3535156 C 2.8417969 5.8195156 3.0190469 5.4146719 3.3730469 5.1386719 C 3.7270469 4.8626719 4.2196094 4.7246094 4.8496094 4.7246094 z M 9.3808594 6.3535156 C 9.5728594 6.3535156 9.753875 6.3684375 9.921875 6.3984375 C 10.095875 6.4284375 10.21525 6.4582812 10.28125 6.4882812 L 10.164062 6.9921875 C 10.116063 6.9681875 10.017187 6.9439219 9.8671875 6.9199219 C 9.7231875 6.8899219 9.5310156 6.875 9.2910156 6.875 C 9.0390156 6.875 8.8356875 6.8936875 8.6796875 6.9296875 C 8.5296875 6.9656875 8.4308125 6.9955312 8.3828125 7.0195312 L 8.3828125 11.095703 L 7.796875 11.095703 L 7.796875 6.6582031 C 7.946875 6.5922031 8.1539688 6.5269375 8.4179688 6.4609375 C 8.6819687 6.3889375 9.0028594 6.3535156 9.3808594 6.3535156 z M 13.060547 8.8242188 L 13.083984 9.1464844 C 12.846084 9.1620844 12.624675 9.1993125 12.421875 9.2578125 C 12.222975 9.3124125 12.046625 9.4005844 11.890625 9.5214844 C 11.734625 9.6384843 11.603347 9.7893625 11.498047 9.9765625 C 11.392747 10.163763 11.32025 10.394969 11.28125 10.667969 C 11.38655 10.613369 11.513909 10.566344 11.662109 10.527344 C 11.810309 10.484444 11.967066 10.462891 12.134766 10.462891 C 12.353166 10.462891 12.539306 10.498159 12.691406 10.568359 C 12.843506 10.634659 12.966947 10.722838 13.060547 10.835938 C 13.154147 10.949038 13.222725 11.080316 13.265625 11.228516 C 13.308525 11.376716 13.328125 11.533466 13.328125 11.697266 C 13.328125 11.849366 13.306566 12.000244 13.259766 12.152344 C 13.212966 12.304444 13.138509 12.443559 13.037109 12.568359 C 12.939609 12.689259 12.814209 12.789187 12.662109 12.867188 C 12.513909 12.945188 12.335606 12.984375 12.128906 12.984375 C 11.703806 12.984375 11.380503 12.835463 11.158203 12.539062 C 10.939803 12.238762 10.832031 11.821409 10.832031 11.287109 C 10.832031 10.495409 11.020137 9.8958281 11.398438 9.4863281 C 11.780637 9.0768281 12.335147 8.8554188 13.060547 8.8242188 z M 12.099609 10.794922 C 11.920209 10.794922 11.763453 10.816475 11.626953 10.859375 C 11.494353 10.898375 11.368953 10.9454 11.251953 11 C 11.244153 11.0663 11.240234 11.119203 11.240234 11.158203 L 11.240234 11.292969 C 11.240234 11.476269 11.251991 11.650653 11.275391 11.814453 C 11.302691 11.978253 11.349716 12.121294 11.416016 12.246094 C 11.486216 12.370894 11.578306 12.470822 11.691406 12.544922 C 11.804506 12.615122 11.947547 12.650391 12.123047 12.650391 C 12.267347 12.650391 12.390788 12.624919 12.492188 12.574219 C 12.593588 12.519619 12.675881 12.449081 12.738281 12.363281 C 12.800681 12.277481 12.845747 12.177553 12.873047 12.064453 C 12.904247 11.951353 12.919922 11.833784 12.919922 11.708984 C 12.919922 11.396984 12.849384 11.165778 12.708984 11.017578 C 12.572484 10.869378 12.368709 10.794922 12.099609 10.794922 z "
     id="path4" />
</svg>

<svg xmlns="http://www.w3.org/2000/svg" viewBox="0 0 16 16">
 <path d="m 1.6 0 c -0.886 0 -1.6 0.713 -1.6 1.6 l 0 12.801 c 0 0.886 0.713 1.6 1.6 1.6 l 12.801 0 c 0.886 0 1.6 -0.713 1.6 -1.6 l 0 -12.801 c 0 -0.886 -0.713 -1.6 -1.6 -1.6 l -12.801 0 z m 3.25 4.725 c 0.168 0 0.332 0.011 0.494 0.035 c 0.162 0.024 0.313 0.058 0.451 0.1 c 0.144 0.036 0.273 0.077 0.387 0.125 c 0.12 0.048 0.219 0.1 0.297 0.154 l -0.217 0.512 c -0.174 -0.12 -0.387 -0.215 -0.639 -0.287 c -0.246 -0.072 -0.513 -0.107 -0.801 -0.107 c -0.198 0 -0.381 0.02 -0.549 0.063 c -0.162 0.036 -0.304 0.099 -0.424 0.189 c -0.12 0.084 -0.215 0.19 -0.287 0.322 c -0.066 0.132 -0.1 0.293 -0.1 0.479 c 0 0.192 0.035 0.354 0.107 0.486 c 0.072 0.132 0.171 0.246 0.297 0.342 c 0.132 0.096 0.285 0.182 0.459 0.26 c 0.174 0.078 0.364 0.16 0.568 0.244 c 0.246 0.102 0.477 0.203 0.693 0.305 c 0.222 0.102 0.412 0.223 0.574 0.361 c 0.162 0.138 0.293 0.306 0.389 0.504 c 0.096 0.198 0.143 0.441 0.143 0.729 c 0 0.564 -0.198 0.988 -0.594 1.27 c -0.39 0.282 -0.92 0.422 -1.592 0.422 c -0.24 0 -0.46 -0.015 -0.658 -0.045 c -0.198 -0.03 -0.375 -0.065 -0.531 -0.107 c -0.156 -0.048 -0.287 -0.097 -0.395 -0.145 c -0.108 -0.048 -0.192 -0.089 -0.252 -0.125 l 0.197 -0.531 c 0.06 0.036 0.14 0.077 0.242 0.125 c 0.102 0.048 0.223 0.097 0.361 0.145 c 0.138 0.042 0.293 0.077 0.467 0.107 c 0.174 0.03 0.366 0.045 0.576 0.045 c 0.486 0 0.865 -0.086 1.135 -0.26 c 0.27 -0.18 0.404 -0.469 0.404 -0.865 c 0 -0.228 -0.045 -0.416 -0.135 -0.566 c -0.084 -0.156 -0.198 -0.285 -0.342 -0.387 c -0.144 -0.108 -0.31 -0.198 -0.496 -0.27 c -0.186 -0.078 -0.38 -0.16 -0.584 -0.244 c -0.258 -0.102 -0.489 -0.206 -0.693 -0.314 c -0.204 -0.108 -0.377 -0.227 -0.521 -0.359 c -0.144 -0.138 -0.256 -0.295 -0.334 -0.469 c -0.072 -0.174 -0.107 -0.377 -0.107 -0.611 c 0 -0.534 0.177 -0.939 0.531 -1.215 c 0.354 -0.276 0.847 -0.414 1.477 -0.414 z m 4.531 1.629 c 0.192 0 0.373 0.015 0.541 0.045 c 0.174 0.03 0.293 0.06 0.359 0.09 l -0.117 0.504 c -0.048 -0.024 -0.147 -0.048 -0.297 -0.072 c -0.144 -0.03 -0.336 -0.045 -0.576 -0.045 c -0.252 0 -0.455 0.019 -0.611 0.055 c -0.15 0.036 -0.249 0.066 -0.297 0.09 l 0 4.076 l -0.586 0 l 0 -4.437 c 0.15 -0.066 0.357 -0.131 0.621 -0.197 c 0.264 -0.072 0.585 -0.107 0.963 -0.107 z m 3.68 2.471 l 0.023 0.322 c -0.238 0.016 -0.459 0.053 -0.662 0.111 c -0.199 0.055 -0.375 0.143 -0.531 0.264 c -0.156 0.117 -0.287 0.268 -0.393 0.455 c -0.105 0.187 -0.178 0.418 -0.217 0.691 c 0.105 -0.055 0.233 -0.102 0.381 -0.141 c 0.148 -0.043 0.305 -0.064 0.473 -0.064 c 0.218 0 0.405 0.035 0.557 0.105 c 0.152 0.066 0.276 0.154 0.369 0.268 c 0.094 0.113 0.162 0.244 0.205 0.393 c 0.043 0.148 0.063 0.305 0.063 0.469 c 0 0.152 -0.022 0.303 -0.068 0.455 c -0.047 0.152 -0.121 0.291 -0.223 0.416 c -0.097 0.121 -0.223 0.221 -0.375 0.299 c -0.148 0.078 -0.327 0.117 -0.533 0.117 c -0.425 0 -0.748 -0.149 -0.971 -0.445 c -0.218 -0.3 -0.326 -0.718 -0.326 -1.252 c 0 -0.792 0.188 -1.391 0.566 -1.801 c 0.382 -0.409 0.937 -0.631 1.662 -0.662 z m -0.961 1.971 c -0.179 0 -0.336 0.022 -0.473 0.064 c -0.133 0.039 -0.258 0.086 -0.375 0.141 c -0.008 0.066 -0.012 0.119 -0.012 0.158 l 0 0.135 c 0 0.183 0.012 0.358 0.035 0.521 c 0.027 0.164 0.074 0.307 0.141 0.432 c 0.07 0.125 0.162 0.225 0.275 0.299 c 0.113 0.07 0.256 0.105 0.432 0.105 c 0.144 0 0.268 -0.025 0.369 -0.076 c 0.101 -0.055 0.184 -0.125 0.246 -0.211 c 0.062 -0.086 0.107 -0.186 0.135 -0.299 c 0.031 -0.113 0.047 -0.231 0.047 -0.355 c 0 -0.312 -0.071 -0.543 -0.211 -0.691 c -0.136 -0.148 -0.34 -0.223 -0.609 -0.223 z" style="fill:#353535;fill-opacity:1"/>
</svg>
